svg/fit_to_page.svg

<svg xmlns="http://www.w3.org/2000/svg" viewBox="0 0 24 24"><path d="M20 2H4c-1.11 0-2 .89-2 2v16c0 1.11.89 2 2 2h16c1.11 0 2-.89 2-2V4c0-1.11-.89-2-2-2m-8 2 3 3h-2v2h-2V7H9m-2 8-3-3 3-3v2h2v2H7m5 7-3-3h2v-2h2v2h2m2-2v-2h-2v-2h2V9l3 3"/></svg>

<?xml version="1.0" encoding="UTF-8"?><!DOCTYPE svg PUBLIC "-//W3C//DTD SVG 1.1//EN" "http://www.w3.org/Graphics/SVG/1.1/DTD/svg11.dtd"><svg xmlns="http://www.w3.org/2000/svg" xmlns:xlink="http://www.w3.org/1999/xlink" version="1.1" id="mdi-fit-to-page" width="24" height="24" viewBox="0 0 24 24"><path d="M20,2H4C2.89,2 2,2.89 2,4V20C2,21.11 2.89,22 4,22H20C21.11,22 22,21.11 22,20V4C22,2.89 21.11,2 20,2M12,4L15,7H13V9H11V7H9M7,15L4,12L7,9V11H9V13H7M12,20L9,17H11V15H13V17H15M17,15V13H15V11H17V9L20,12" /></svg>
